X:17
T:Ecosaise
R:Engelska
O:Sven Vieslander, Vislanda, Småland
N:Se [[http://www.smus.se/earkiv/fmk/browselarge.php?lang=sw&katalogid=M+40&bildnr=00064|Smus]].
M:2/4
L:1/16
K:G
|:GABc dedB| dedB dedB| cdcA BcBG| Aaag fgab|g2GB dedB| dedB dedB| cdcA BcBg| fgaf g4 :: g2f2 e2d2 | e2d2 c2B2| cBcA BABG| Aaag fgab | g2f2 e2d2| e2d2 c2B2| cdBc AcBd| egfa g4 :| 
(:musicend:)

(:title Ecosaise ur Sven Wieslanders notbok:)

Två varianter:

(:music:)
